src/assets/icons/gender/male-female.svg

<svg data-name="Layer 2" xmlns="http://www.w3.org/2000/svg" viewBox="0 0 24 24">
    <path fill="none" d="M0 0h24v24H0z"/>
    <path d="M16 2v2h2.78l-3.57 3.19A5 5 0 1 0 11 15.9V18H9v2h2v2h2v-2h2v-2h-2v-2.1a5 5 0 0 0 3.45-7.14L20 5.58V8h2V2zm-4 12a3 3 0 1 1 3-3 3 3 0 0 1-3 3z"/>
</svg>

<svg id="Layer_2" data-name="Layer 2" xmlns="http://www.w3.org/2000/svg" viewBox="0 0 24 24"><defs><style>.cls-1{fill:none;}</style></defs><title>gender-male-female</title><rect class="cls-1" width="24" height="24"/><path d="M16,2V4h2.78L15.21,7.19A5,5,0,1,0,11,15.9V18H9v2h2v2h2V20h2V18H13V15.9a5,5,0,0,0,3.45-7.14L20,5.58V8h2V2ZM12,14a3,3,0,1,1,3-3A3,3,0,0,1,12,14Z"/></svg>
